X: 188
T: A Fig For A Kiss
R: slip jig
M: 9/8
K: Edorian
|:"Em"G2 B E2 B BAG|"D"F2 A D2 A AGF|"Em"G2 B E2 B BAG|"G"BdB "D"AGF "Em"E3:|
"Em"g2 e g2 e edB|"D"f2 d dcd fed|"Em"g2 e g2 e edB|"G"dBA GBd "C"e2 f|
"Em"g2 e g2 e edB|"D"f2d dcd fed|"C"gfe "D"fed "Em"edB|BdB "D"AGF "Em"E3||

